pkgs/clan-app/ui/icons/ai.svg

<svg xmlns="http://www.w3.org/2000/svg" width="48" height="48" fill="currentColor"><path d="M27 38H6V17h4v-4h3.5V9h24v4H41v11H27v3h7v4h-3.5v3.5H27zM16.5 20.5H20V17h-3.5z"/></svg>

<svg xmlns="http://www.w3.org/2000/svg" width="48" height="48" viewBox="0 0 48 48" fill="currentColor">
    <path d="M27 38H6V17H10V13H13.5V9H37.5V13H41V24H27V27H34V31H30.5V34.5H27V38ZM16.5 20.5H20V17H16.5V20.5Z"/>
</svg>
